X: 114
T: A Brandnew Night
R: hornpipe
M: 4/4
K: Bminor
|:"Bm"f>gf>d B2 B>f|"A"e>fe>c A2 A>e|"G"d>ed>c B>cd>B|"F#m"c>ff>g f>ed>e|
"Bm"f>gf>d B2 B>f|"A"e>fe>c A2 A>e|"G"d>ed>c B>cd>B|"F#m"c>F^A>c "Bm"B2 d>e:|
|:"Bm"f>ed>B "Em"g2 g>f|"A"e>dc>d "C"e>ag>e|"F#"f>ed>B ^A>Bc>d|"F#"e>F^A>c e>gf>e|
"Bm"f>ed>B "Em"g2 g>f|"A"e>dc>d "C"e>ag>e|"F#"f>ed>B ^A>Bc>d|"F#"e>F^A>c "Bm"B2 d>e:|

